img/icon_date.svg

<svg width="24" height="24" viewBox="0 0 24 24" fill="none" xmlns="http://www.w3.org/2000/svg">
<g opacity="0.2">
<path d="M7.99951 2V5" stroke="#1A2339" stroke-width="1.5" stroke-miterlimit="10" stroke-linecap="round" stroke-linejoin="round"/>
<path d="M16.0005 2V5" stroke="#1A2339" stroke-width="1.5" stroke-miterlimit="10" stroke-linecap="round" stroke-linejoin="round"/>
<path d="M3.49951 9.08998H20.4995" stroke="#1A2339" stroke-width="1.5" stroke-miterlimit="10" stroke-linecap="round" stroke-linejoin="round"/>
<path d="M21 8.50001V17C21 20 19.5 22 16 22H8C4.5 22 3 20 3 17V8.50001C3 5.50001 4.5 3.5 8 3.5H16C19.5 3.5 21 5.50001 21 8.50001Z" stroke="#1A2339" stroke-width="1.5" stroke-miterlimit="10" stroke-linecap="round" stroke-linejoin="round"/>
<path d="M11.9961 13.7H12.0054" stroke="#1A2339" stroke-width="2" stroke-linecap="round" stroke-linejoin="round"/>
<path d="M8.29395 13.7H8.30331" stroke="#1A2339" stroke-width="2" stroke-linecap="round" stroke-linejoin="round"/>
<path d="M8.29395 16.7H8.30331" stroke="#1A2339" stroke-width="2" stroke-linecap="round" stroke-linejoin="round"/>
</g>
</svg>

<svg width="24" height="24" fill="none" xmlns="http://www.w3.org/2000/svg"><g opacity=".2" stroke="#1A2339" stroke-linecap="round" stroke-linejoin="round"><path d="M8 2v3M16 2v3M3.5 9.09h17M21 8.5V17c0 3-1.5 5-5 5H8c-3.5 0-5-2-5-5V8.5c0-3 1.5-5 5-5h8c3.5 0 5 2 5 5z" stroke-width="1.5" stroke-miterlimit="10"/><path d="M11.996 13.7h.01M8.294 13.7h.01M8.294 16.7h.01" stroke-width="2"/></g></svg>
